X: 1906
T: The Rakish Highlandman
P: The Rakish Highlandman
C:Traditional?
R:Jig (8x40) ABABB
B:RSCDS 19-6
Z:Anselm Lingnau <anselm@strathspey.org>
M:6/8
L:1/8
K:Em
F/E/|"Em"E2B B2A|GBG E2G|"D"FAF D2G|FAF D2 F/E/|
     "Em"E2B B2A|GBG E2G|"D"FAF D2F|"Em"E3 E2||
G/A/|"Em"B2A B2c|"Bm"d2c d3|"D"FAF D2G|FAF D2 G/A/|
     "Em"B2A B2c|"Bm"d2c d3|"D"FAF "B7"D2F|"Em"E3 E2||
%%center Book19/1906-Rakish_Highlandman-AL.abc

%%sep 1 1 500
%%sep 1 1 500

